packages/ui/public/icons/lock-locked.svg

<svg width="17" height="17" viewBox="0 0 17 17" fill="none" xmlns="http://www.w3.org/2000/svg">
<path opacity="0.4" d="M4.9585 7.08333V5.66667C4.9585 3.71066 6.54416 2.125 8.50016 2.125C9.95246 2.125 11.2006 2.99915 11.7472 4.25" stroke="#C943A8" stroke-width="2" stroke-linecap="round" stroke-linejoin="round"/>
<path d="M8.50016 10.271V11.6877M6.2335 14.8752H10.7668C11.957 14.8752 12.552 14.8752 13.0066 14.6435C13.4064 14.4398 13.7315 14.1148 13.9352 13.7149C14.1668 13.2603 14.1668 12.6653 14.1668 11.4752V10.4835C14.1668 9.29335 14.1668 8.69835 13.9352 8.24375C13.7315 7.84389 13.4064 7.51884 13.0066 7.31512C12.552 7.0835 11.957 7.0835 10.7668 7.0835H6.2335C5.04338 7.0835 4.44833 7.0835 3.99377 7.31512C3.59392 7.51884 3.26884 7.84389 3.06511 8.24375C2.8335 8.69835 2.8335 9.29335 2.8335 10.4835V11.4752C2.8335 12.6653 2.8335 13.2603 3.06511 13.7149C3.26884 14.1148 3.59392 14.4398 3.99377 14.6435C4.44833 14.8752 5.04338 14.8752 6.2335 14.8752Z" stroke="#C943A8" stroke-width="1.6" stroke-linecap="round" stroke-linejoin="round"/>
</svg>

<svg width="17" height="17" fill="none" xmlns="http://www.w3.org/2000/svg"><path opacity=".4" d="M4.958 7.083V5.667a3.542 3.542 0 0 1 6.79-1.417" stroke="#C943A8" stroke-width="2" stroke-linecap="round" stroke-linejoin="round"/><path d="M8.5 10.271v1.417m-2.266 3.187h4.533c1.19 0 1.785 0 2.24-.232.4-.203.725-.528.928-.928.232-.455.232-1.05.232-2.24v-.992c0-1.19 0-1.785-.232-2.24a2.125 2.125 0 0 0-.928-.928c-.455-.232-1.05-.232-2.24-.232H6.234c-1.19 0-1.786 0-2.24.232-.4.204-.725.529-.929.929-.232.454-.232 1.05-.232 2.24v.991c0 1.19 0 1.785.232 2.24.204.4.529.725.929.928.454.232 1.05.232 2.24.232Z" stroke="#C943A8" stroke-width="1.6" stroke-linecap="round" stroke-linejoin="round"/></svg>
